X:35
T:Dunphy's Hornpipe
R:hornpipe
D:Paddy Keenan
Z:id:hn-hornpipe-35
M:C|
K:G
BA|GDBD GBdg|feed ecAG|FAEA DFAc|BGAF GFED|
GDBD GBdg|feed ecAG|FAdB cAFG|(3ABA GF G2:|
|:Bc|(3ded Bd gdBd|gbaf gdBd|gefd ed (3B^cd|ed^ce d2 ef|
gedc BGBd|ecAG FADF|GBdB cAFG|(3ABA GF G2:|

